X: 29579
T: Noon Lassies, The
R: reel
M: 4/4
K: Gmajor
|:G2BG AGBG|G2 BG AG E2|G2 BG AGAB|BAGE EDD2:|
|:dedB AGAB|dedB AG E2|dedB AGAB|BAGE EDD2:|
|:DGBG AGBG|DGBG AG E2|DGBG AGAB|BAGE ED D2|
dgbg agbg|dgbg ag e2|dgbg agab|bage ed d2:|
edBg edBg|edBA GE E2|edBg edBA|GAGE ED D2|
edBg edBg|edBA GEE2|ed (3Bcd efg2|GAGE ED D2||

